page-layout-body.svg

<svg fill="currentColor" viewBox="0 0 24 24"><path d="M6 2h12a2 2 0 0 1 2 2v16a2 2 0 0 1-2 2H6a2 2 0 0 1-2-2V4a2 2 0 0 1 2-2m0 6v8h12V8z"/></svg>

<svg  viewBox="0 0 24 24" fill="currentColor"><path  d="M6,2H18A2,2 0 0,1 20,4V20A2,2 0 0,1 18,22H6A2,2 0 0,1 4,20V4A2,2 0 0,1 6,2M6,8V16H18V8H6Z"/></svg>
